!! 00000] TT[WS
!!!OTL: Zao xikao
!!!ARE: Asia, China, Shanxi Linxian
!! Ethnic Group: Han
!! WII, 74 (1)
!!!SCT: J0507
!!!YEM: Copyright 1995, estate of Helmut Schaffrath.
**kern
*ICvox
*Ivox
*M2/4
*k[b-]
*F:
{8g
16f
16d
8c
16a
16dd
=1
4.cc
8dd
=2
8ff
16ff
16dd
16cc
16dd
16a
16g
=3
4.f
8d}
=4
{16g
16a
4cc
8ff
=5
16cc
16dd
16a
16g
8f
8d
=6
16a
16g
16a
16a
8g
16f
16d
=7
2c}
==
!!!AGN: Xiaodiao, Zouxikou. Qingge
!!!ONB: ESAC (Essen Associative Code) Database: CHINA
!!!AMT: simple duple
!!!AIN: vox
!!!EED: Helmut Schaffrath
!!!EEV: 1.0
*-
